X:1
T:Main Theme - Disney Pixar's Up
%%score 1 { 2 | 3 }
L:1/8
Q:1/4=175
M:3/4
K:F
V:1 treble transpose=-9 nm="Alto Saxophone" snm="A. Sax."
V:2 treble nm="Piano" snm="Pno."
V:3 bass 
V:1
[K:D] z2 z4 | z2 z4 | z2 z4 | z z2 d fd | c6- | c2 z d fc | B2 z B dB | A4 z B | f2 e2 z B | %9
 f2 e2{/c} d2 | B6- | B2 z d ed | c6- | c2 z c ec | A2 z A cA | G2 z G AG | z2 F2 G2 | A2- AB c2 | %18
 z2 A2 B2 | c2- cd fd | c6- | c2 z d fc | B2 z B dB | A4 z B | f2 e2 z B | f2 e2{/c} d2 | B6- | %27
 B2 z d ed | c6- | c2 z c ec | A2 z A cA | G2 z G AG | z2 F2 G2 | A2- AB c2 | z2 A2 B2 | %35
 c2- cd fd | c6- | c2 z d fc | B2 z d fb | c'4 z B | d2 c2 z B | F2 _A2 B2 |{/c} d4- d2 | %43
{/c} B2 z d ed | c6- | c2 z c ec | A2 z A cA | GA Bc ef | !trill(!Tg6 | g4 z2 | g2 f2 z e | %51
 b2 f2 e2 | f6 | d6 | f2 e2 z d | f2 _e2 B2 | _A2 _B=B =c^c | d_e =e=f ^fg | gf =fe _ed | %59
 c=c B_B A_A | c2 e2 z B | c2 G2 _A2 | =A6 | AB cd{/e} fd | c6- | c2 z d fc | B2 z B df | a4 z d | %68
 f2 e2 z B | f2 e2{/c} d2 | B6- | B2 z d ed | c6- | c2 z c ec | A2 z A cA | G6 | z2 F2 G2 | %77
 A2- AB c2 | z2 A2 B2 | c2 z d fd |"^Rit..." c6- | c6- | c6- | c2 z!mp! d fd | c6- | c2 z d fc | %86
 B2 z B dB | A4 z B | f2 e2 z B | f2 e2 d2 | B6- | B2 z d ed | c6- | c2 z c ec | A2 z A cA | G6 | %96
 z2 F2 G2 | A2- AB c2 | z2 A2 B2 | c2- cd fd | a6- | a6- | a6- | a6 | z6 |] %105
V:2
 [Af]6 | [Ae] z/ [Ae]/ [Ae]2 [Ae]2 | [Af]6 | [Ae]6 | f6 | e6 | d6 | c6 | =B6 | =B6 | =B6 | =B6 | %12
 e6 | d6 | c6 | B6 | f6 | f6 | c6 | c2 ef af | f6 | e6 | d6 | c6 | =B6 | =B6 | =B6 | =B6 | e6 | %29
 d6 | c6 | B6 | f2 A2 B2 | c3 d e2 | c6 | c2 ef af | f6 | e6 | d6 | c6 | =B6 | =B6 | =B6 | =B6 | %44
 e6 | d6 | [Gc]6 | [dg]6 | z6 | z6 | z6 | z6 | z6 | z6 | z6 | z6 | z6 | z6 | z6 | z6 | z6 | z6 | %62
 z6 | z6 | f6 | e6 | d6 | c6 | =B6- | B6 | =B6- | B6 | e6 | d6 | c6 | B6 | z2 A2 B2 | c2- cd e2 | %78
 z2 c2 d2 | e4 z2 | z6 | z6 | z6 | z6 | [Af]6 | [Ae]6 | [Af]6 | [_EAc]6 | [=B,DG]6 | [A,DG]6 | %90
 [G,=B,D]6 | [F,=B,D]6 | [ce]6 | c6 | [GBc]6 | [GB]6 | [CFA]6 | [CFA]6 | [G,CE]6 | [G,CE]6 | z6 | %101
 z6 | z6 | z6 | z6 |] %105
V:3
 F,2 [A,C]2 [A,C]2 | C,2 [A,C]2 [A,C]2 | D,2 [A,C]2 [A,C]2 | C,2 D,2 E,2 | F,2 [A,C]2 [A,C]2 | %5
 C,2 [A,C]2 [A,C]2 | D,2 [A,C]2 [A,C]2 | C,2 [A,C]2 [A,C]2 | =B,,2 [D,F,G,]2 [D,F,G,]2 | %9
 =B,,2 [D,F,G,]2 [D,F,G,]2 | =B,,2 [D,F,G,]2 [D,F,G,]2 | =B,,2 [D,F,G,]2 [D,F,G,]2 | %12
 E,2 [G,C]2 [G,C]2 | D,2 [G,C]2 [G,C]2 | C,2 [E,G,]2 [E,G,]2 | B,,2 [E,G,]2 [E,G,]2 | %16
 F,2 [A,C]2 [A,C]2 | F,2 [A,C]2 [A,C]2 | C,2 [E,G,]2 [E,G,]2 | [C,E,G,]6 | F,2 [A,C]2 [A,C]2 | %21
 C,2 [A,C]2 [A,C]2 | D,2 [A,C]2 [A,C]2 | C,2 [A,C]2 [A,C]2 | =B,,2 [D,F,G,]2 [D,F,G,]2 | %25
 =B,,2 [D,F,G,]2 [D,F,G,]2 | =B,,2 [D,F,G,]2 [D,F,G,]2 | =B,,2 [D,F,G,]2 [D,F,G,]2 | %28
 E,2 [G,C]2 [G,C]2 | D,2 [G,C]2 [G,C]2 | C,2 [E,G,]2 [E,G,]2 | B,,2 [E,G,]2 [E,G,]2 | %32
 F,2 [A,C]2 [A,C]2 | F,2 [A,C]2 [A,C]2 | C,2 [E,G,]2 [E,G,]2 | [C,E,G,]6 | F,2 [A,C]2 [A,C]2 | %37
 C,2 [A,C]2 [A,C]2 | D,2 [A,C]2 [A,C]2 | C,2 [A,C]2 [A,C]2 | =B,,2 [D,F,G,]2 [D,F,G,]2 | %41
 =B,,2 [D,F,G,]2 [D,F,G,]2 | =B,,2 [D,F,G,]2 [D,F,G,]2 | =B,,2 [D,F,G,]2 [D,F,G,]2 | [E,G,C]6 | %45
 [D,G,C]6 | [C,E,G,]6 | [B,,E,G,]6 | C,2 [E,G,]2 [E,G,]2 | G,,2 [E,G,]2 [E,G,]2 | %50
 C,2 [E,G,]2 [E,G,]2 | G,,2 [E,G,]2 [E,G,]2 | F,,2 [F,A,]2 [F,A,]2 | C,2 [F,A,]2 [F,A,]2 | %54
 F,,2 [F,A,]2 [F,A,]2 | D,,2 [F,=B,]2 [F,B,]2 | =B,,2 [F,=B,]4- | [F,B,]6 | D,2 [F,=B,]4- | %59
 [F,B,]6 | [E,G,-C]6 | [E,G,C]6 | [A,CE-]6 | [A,CE]6 | F,2 [A,C]4 | C,2 [A,C]4 | D,2 [A,C]4 | %67
 C,2 [A,C]4 | =B,,2 [G,=B,]4 | G,,2 [G,=B,]4 | =B,,2 [G,=B,]4 | D,2 [G,=B,]4 | E,2 [G,C]4 | %73
 D,2 [G,C]4 | C,2 [E,G,]4 | B,,6 | [F,-A,C]6 | [F,A,C]6 | [C,E,G,-]6 | [C,E,G,]6 | %80
!>(! F,2 [A,C]2 [A,C]2!>)! | C,2 [A,C]2 [A,C]2 | D,-D,/[A,C]/ [A,C]2 [A,C]2 | C,2 [A,C]4 | z6 | %85
 z6 | z6 | z6 | z6 | z6 | z6 | z6 | z6 | z6 | z6 | z6 | z6 | z6 | z6 | z6 |[K:bass] [F,A,C]6 | %101
 [F,A,CE]6 | [F,A,C]6 | [F,A,CE]6 | [C,F,]6 |] %105

